svg/rotate_3d.svg

<svg xmlns="http://www.w3.org/2000/svg" viewBox="0 0 24 24"><path d="M7.47 21.5C4.2 19.94 1.86 16.76 1.5 13H0c.5 6.16 5.66 11 11.95 11l.66-.03-3.81-3.81zm.89-6.54c-.19 0-.36-.03-.52-.08a1.1 1.1 0 0 1-.4-.24c-.11-.1-.2-.22-.26-.37-.06-.14-.09-.3-.09-.47h-1.3c0 .36.07.7.21.95s.33.5.56.69c.24.18.51.32.82.41q.45.15.96.15c.37 0 .72-.05 1.03-.15.32-.1.6-.25.83-.44s.42-.41.55-.72c.13-.29.2-.61.2-.97 0-.19-.02-.38-.07-.56-.05-.16-.12-.35-.23-.51-.1-.15-.24-.3-.4-.43-.17-.13-.37-.22-.61-.31a2.07 2.07 0 0 0 .89-.75c.1-.16.17-.3.22-.46s.07-.32.07-.48q0-.54-.18-.96c-.14-.26-.29-.51-.51-.69-.2-.19-.47-.33-.77-.43C9.05 8.05 8.71 8 8.34 8c-.34 0-.69.05-1 .16-.3.11-.57.26-.79.45-.21.19-.38.39-.51.67-.12.26-.18.54-.18.85h1.3q0-.255.09-.45a.94.94 0 0 1 .25-.34c.11-.09.23-.17.38-.22s.3-.08.48-.08c.4 0 .7.1.89.31.19.2.29.49.29.86 0 .18-.04.34-.08.49a.87.87 0 0 1-.25.37c-.11.1-.25.18-.41.24s-.36.09-.58.09h-.77v1.03h.77c.22 0 .42.02.6.07s.33.13.45.23c.12.11.23.24.29.4.07.16.1.37.1.57 0 .41-.12.72-.35.93-.23.23-.55.33-.95.33m8.55-5.92c-.32-.33-.7-.59-1.14-.77-.43-.18-.92-.27-1.46-.27h-2.36v8h2.3c.55 0 1.06-.09 1.51-.27s.84-.43 1.16-.76.58-.73.74-1.19c.17-.47.26-.99.26-1.57v-.4c0-.58-.09-1.1-.26-1.57-.16-.47-.43-.87-.75-1.2m-.41 3.16c0 .42-.03.8-.12 1.13-.1.33-.24.62-.43.85s-.45.41-.71.53q-.435.18-.99.18h-.91V9.12h.97c.72 0 1.27.23 1.64.69.38.46.55 1.12.55 1.99M11.95 0l-.66.03 3.81 3.81 1.33-1.34c3.27 1.56 5.61 4.73 5.96 8.5h1.5c-.5-6.16-5.65-11-11.94-11"/></svg>

<?xml version="1.0" encoding="UTF-8"?><!DOCTYPE svg PUBLIC "-//W3C//DTD SVG 1.1//EN" "http://www.w3.org/Graphics/SVG/1.1/DTD/svg11.dtd"><svg xmlns="http://www.w3.org/2000/svg" xmlns:xlink="http://www.w3.org/1999/xlink" version="1.1" id="mdi-rotate-3d" width="24" height="24" viewBox="0 0 24 24"><path d="M7.47,21.5C4.2,19.94 1.86,16.76 1.5,13H0C0.5,19.16 5.66,24 11.95,24L12.61,23.97L8.8,20.16L7.47,21.5M8.36,14.96C8.17,14.96 8,14.93 7.84,14.88C7.68,14.82 7.55,14.75 7.44,14.64C7.33,14.54 7.24,14.42 7.18,14.27C7.12,14.13 7.09,13.97 7.09,13.8H5.79C5.79,14.16 5.86,14.5 6,14.75C6.14,15 6.33,15.25 6.56,15.44C6.8,15.62 7.07,15.76 7.38,15.85C7.68,15.95 8,16 8.34,16C8.71,16 9.06,15.95 9.37,15.85C9.69,15.75 9.97,15.6 10.2,15.41C10.43,15.22 10.62,15 10.75,14.69C10.88,14.4 10.95,14.08 10.95,13.72C10.95,13.53 10.93,13.34 10.88,13.16C10.83,13 10.76,12.81 10.65,12.65C10.55,12.5 10.41,12.35 10.25,12.22C10.08,12.09 9.88,12 9.64,11.91C9.84,11.82 10,11.71 10.16,11.58C10.31,11.45 10.43,11.31 10.53,11.16C10.63,11 10.7,10.86 10.75,10.7C10.8,10.54 10.82,10.38 10.82,10.22C10.82,9.86 10.76,9.54 10.64,9.26C10.5,9 10.35,8.75 10.13,8.57C9.93,8.38 9.66,8.24 9.36,8.14C9.05,8.05 8.71,8 8.34,8C8,8 7.65,8.05 7.34,8.16C7.04,8.27 6.77,8.42 6.55,8.61C6.34,8.8 6.17,9 6.04,9.28C5.92,9.54 5.86,9.82 5.86,10.13H7.16C7.16,9.96 7.19,9.81 7.25,9.68C7.31,9.55 7.39,9.43 7.5,9.34C7.61,9.25 7.73,9.17 7.88,9.12C8.03,9.07 8.18,9.04 8.36,9.04C8.76,9.04 9.06,9.14 9.25,9.35C9.44,9.55 9.54,9.84 9.54,10.21C9.54,10.39 9.5,10.55 9.46,10.7C9.41,10.85 9.32,10.97 9.21,11.07C9.1,11.17 8.96,11.25 8.8,11.31C8.64,11.37 8.44,11.4 8.22,11.4H7.45V12.43H8.22C8.44,12.43 8.64,12.45 8.82,12.5C9,12.55 9.15,12.63 9.27,12.73C9.39,12.84 9.5,12.97 9.56,13.13C9.63,13.29 9.66,13.5 9.66,13.7C9.66,14.11 9.54,14.42 9.31,14.63C9.08,14.86 8.76,14.96 8.36,14.96M16.91,9.04C16.59,8.71 16.21,8.45 15.77,8.27C15.34,8.09 14.85,8 14.31,8H11.95V16H14.25C14.8,16 15.31,15.91 15.76,15.73C16.21,15.55 16.6,15.3 16.92,14.97C17.24,14.64 17.5,14.24 17.66,13.78C17.83,13.31 17.92,12.79 17.92,12.21V11.81C17.92,11.23 17.83,10.71 17.66,10.24C17.5,9.77 17.23,9.37 16.91,9.04M16.5,12.2C16.5,12.62 16.47,13 16.38,13.33C16.28,13.66 16.14,13.95 15.95,14.18C15.76,14.41 15.5,14.59 15.24,14.71C14.95,14.83 14.62,14.89 14.25,14.89H13.34V9.12H14.31C15.03,9.12 15.58,9.35 15.95,9.81C16.33,10.27 16.5,10.93 16.5,11.8M11.95,0L11.29,0.03L15.1,3.84L16.43,2.5C19.7,4.06 22.04,7.23 22.39,11H23.89C23.39,4.84 18.24,0 11.95,0Z" /></svg>
